src/static/img/svg/location_amphis.svg

<svg viewBox="0 0 50 50" xmlns="http://www.w3.org/2000/svg"><g fill="#ab162d"><path d="m26.15 35.14h.72a10.24 10.24 0 0 0 10.23-10.23v-13.81a10.24 10.24 0 0 0 -10.23-10.23h-.72a10.24 10.24 0 0 0 -10.23 10.23v13.81a10.24 10.24 0 0 0 10.23 10.23zm6-27.45a.9.9 0 1 1 -.89.89.89.89 0 0 1 .9-.89zm0 3.58a.9.9 0 1 1 -.89.9.9.9 0 0 1 .9-.9zm0 3.59a.9.9 0 1 1 -.89.9.9.9 0 0 1 .9-.9zm0 3.59a.9.9 0 1 1 -.89.9.9.9 0 0 1 .9-.9zm-3.76-14.17a.9.9 0 1 1 -.89.89.89.89 0 0 1 .89-.89zm0 3.41a.9.9 0 1 1 -.89.89.89.89 0 0 1 .89-.89zm0 3.58a.9.9 0 1 1 -.89.9.9.9 0 0 1 .89-.9zm0 3.59a.9.9 0 1 1 -.89.9.9.9 0 0 1 .89-.9zm0 3.59a.9.9 0 1 1 -.89.9.9.9 0 0 1 .89-.9zm-3.76-14.17a.9.9 0 1 1 -.9.89.89.89 0 0 1 .9-.89zm0 3.41a.9.9 0 1 1 -.9.89.89.89 0 0 1 .9-.89zm0 3.58a.9.9 0 1 1 -.9.9.9.9 0 0 1 .9-.9zm0 3.59a.9.9 0 1 1 -.9.9.89.89 0 0 1 .9-.9zm0 3.59a.9.9 0 1 1 -.9.9.89.89 0 0 1 .9-.9zm-3.77-10.76a.9.9 0 1 1 -.9.89.9.9 0 0 1 .9-.89zm0 3.58a.9.9 0 1 1 0 1.8.9.9 0 1 1 0-1.8zm0 3.59a.9.9 0 1 1 -.9.9.9.9 0 0 1 .9-.9zm0 3.59a.9.9 0 1 1 -.9.9.9.9 0 0 1 .9-.9z"/><path d="m40 14a1.08 1.08 0 0 0 -1.13 1v9.87a12.36 12.36 0 1 1 -24.72 0v-9.87a1.08 1.08 0 0 0 -2.15 0v9.87a14.54 14.54 0 0 0 13.43 14.53v5.43h-6.72a2.15 2.15 0 1 0 0 4.3h15.61a2.15 2.15 0 0 0 0-4.3h-6.73v-5.43a14.54 14.54 0 0 0 13.41-14.49v-9.91a1.08 1.08 0 0 0 -1-1z"/></g></svg>

<svg id="Capa_1" data-name="Capa 1" xmlns="http://www.w3.org/2000/svg" viewBox="0 0 50 50"><defs><style>.cls-1{fill:#ab162d;}</style></defs><title>Plan de travail 1 copie</title><path class="cls-1" d="M26.15,35.14h.72A10.24,10.24,0,0,0,37.1,24.91V11.1A10.24,10.24,0,0,0,26.87.87h-.72A10.24,10.24,0,0,0,15.92,11.1V24.91A10.24,10.24,0,0,0,26.15,35.14Zm6-27.45a.9.9,0,1,1-.89.89A.89.89,0,0,1,32.16,7.69Zm0,3.58a.9.9,0,1,1-.89.9A.9.9,0,0,1,32.16,11.27Zm0,3.59a.9.9,0,1,1-.89.9A.9.9,0,0,1,32.16,14.86Zm0,3.59a.9.9,0,1,1-.89.9A.9.9,0,0,1,32.16,18.45ZM28.39,4.28a.9.9,0,1,1-.89.89A.89.89,0,0,1,28.39,4.28Zm0,3.41a.9.9,0,1,1-.89.89A.89.89,0,0,1,28.39,7.69Zm0,3.58a.9.9,0,1,1-.89.9A.9.9,0,0,1,28.39,11.27Zm0,3.59a.9.9,0,1,1-.89.9A.9.9,0,0,1,28.39,14.86Zm0,3.59a.9.9,0,1,1-.89.9A.9.9,0,0,1,28.39,18.45ZM24.63,4.28a.9.9,0,1,1-.9.89A.89.89,0,0,1,24.63,4.28Zm0,3.41a.9.9,0,1,1-.9.89A.89.89,0,0,1,24.63,7.69Zm0,3.58a.9.9,0,1,1-.9.9A.9.9,0,0,1,24.63,11.27Zm0,3.59a.9.9,0,1,1-.9.9A.89.89,0,0,1,24.63,14.86Zm0,3.59a.9.9,0,1,1-.9.9A.89.89,0,0,1,24.63,18.45ZM20.86,7.69a.9.9,0,1,1-.9.89A.9.9,0,0,1,20.86,7.69Zm0,3.58a.9.9,0,1,1,0,1.8.9.9,0,1,1,0-1.8Zm0,3.59a.9.9,0,1,1-.9.9A.9.9,0,0,1,20.86,14.86Zm0,3.59a.9.9,0,1,1-.9.9A.9.9,0,0,1,20.86,18.45Z"/><path class="cls-1" d="M40,14A1.08,1.08,0,0,0,38.87,15v9.87a12.36,12.36,0,1,1-24.72,0V15A1.08,1.08,0,0,0,12,15v9.87A14.54,14.54,0,0,0,25.43,39.4v5.43H18.71a2.15,2.15,0,1,0,0,4.3H34.32a2.15,2.15,0,0,0,0-4.3H27.59V39.4A14.54,14.54,0,0,0,41,24.91V15A1.08,1.08,0,0,0,40,14Z"/></svg>
